FINK
CUT[RARITETE SEIN ZU SEHN]
REG[Europa, Mitteleuropa, Deutschland]
KEY[F0083  16  C 2/4]
MEL[  -5_-5_-5_1_  -3_-5_-1__
    -5_1_1_3_  2_.-7-5_0_
    -5_-5_-5_1_  -3_-5_-1__
    -5_1_1_3_  2_.-7-5_0_
    3_1_1_23  4_2_2__
    3_1_1_23  2_-7_-5__
    1_.-71_-3-4  -5__-1_0_ //] >>
FCT[Kirmes -, Guckkasten - Lied]
